X: 1
T: Daleko sam ja, daleko si ti
R: lesnoto
Z: 1997 by John Chambers <jc:trillian.mit.edu>
M: 7/8
L: 1/8
K: D
[| "D"[fA][fA][fA] [fA][gB] [fA][eG] | [d7F7] \
| "Em"[eG][eG][eG] [eG][fA] [gB][fA] | [e7G7] \
| "A7"[ac][ac][ac] [ac][bd] [a/c/][g/B/][fA] | "G"[gB][gB][gB] [gB][ac] [g/B/][f/A/][eG] |\
[1 "D"[f2A2][eG] "A7"[dF][eG] [fA][gB] | "D"[f7A7] :|\
[2 "A7"[e2G2][dF] [cE][dF] [eG][cE] |
"D"[d7F7] \
[| "D"[d2F2][dF] [A2F2] "(A7)"[BG]c | "D"[d2F2][dF] [A2F2] [d2A2] \
| "E7"[f2B2]e [d2^G2]- [d^G2]e | "A7"[c7A7] \
| "G"[d2B2][dB] [c2A2] [B2G2] | "G"[B2G2][cA] [B2G2] [A2F2] \
| "A7"[A2F2][BG] [A2F2] [GE][FD] | "D"[F7D7] |
| "D"[d2F2][dF] [A2F2] "(A7)"[BG]c | "D"[d2F2][dF] [A2F2] [d2A2] \
| "E7"[f2B2]e ([d2^G2] [d^G2])e | "A7"[c7A7] \
| "G"[d2B2][dB] [c2A2] [B2G2] | "G"[B2G2][cA] [B2G2] [A2F2] \
| "A7"[c2A2][BG] [A2F2] [GE][FD] | "D"[F7D7] |]
|: "D"[A2D2][dF] [d2F2] [dF][eG] \
| [f7A7] \
| [A2D2][dF] [d2F2] [dF][eG] \
| [f7A7] \
| "Em"[f2A2][gB] "B7"[f2A2] [fA][eG] \
| "Em"[e7G7] \
| "A7"[f2A2][fA] [gB][fA] [eG][dF] \
| "D"[d7F7] :|

%%sep 1 1 500
%%sep 1 1 500

